!!!!SEGMENT: pl-wnifc--6634-n--001_moniuszko-stanislaw--1-mazurka-de-l-opera-halka.krn
!!!cenid: 18xx:3997
!!!COM: Moniuszko, Stanisław
!!!COM-rismID: pe30008351
!!!CDT: 1819/05/05-1872/06/04
!!!CNT: Polish
!!!OTL: 1. Mazurka de l'opéra Halka
!!!PDT:
!!!AGN:
!!!SMS-siglum: PL-Wnifc
!!!SMS-shelfmark: 6634/n
!!!SMS-shelfwork: 001 W
!!!SMS-variant:
!!!SMS-altvar:
!!!NIFC-rismSourceID: 1001148593
!!!NIFC-rismChildID: 1001148595
!!!NIFC-islandoraID: nifc:212915
!!!URL-pdf-islandora: https://repozytorium.nifc.pl/islandora/object/nifc%3A212915/datastream/PDF/view
!!!URL-scan: https://polish.musicsources.pl/pl/lokalizacje/galeria/druki-muzyczne/16872 @EN{Scan on Polish Music Sources Website} @PL{Skany w portalu Dziedzictwo Muzyki Polskiej w otwartym dostępie}
!!!IIIF:
!!!ONB-nifc: UWAGA: str. 2-4
!!!AIN: 1 violn
!!!key: E-
**kern	**fing	**dynam
*I"Violon.	*	*
*I'vl	*	*
*ICstr	*	*
*Ivioln	*	*
*>[A,A1,A,A2,B]	*>[A,A1,A,A2,B]	*>[A,A1,A,A2,B]
*>A	*>A	*>A
*clefG2	*	*
*k[b-e-a-]	*	*
*E-:	*	*
*M3/4	*	*
=1	=1	=1
8.ggu\L	.	f
16gg\Jk	.	.
8gg\	.	.
8r	.	.
4gg'\	.	.
=2	=2	=2
4gg'\	.	.
4gg'\	.	.
4gg'\	.	.
=3	=3	=3
!LO:TX:b:i:t=jetez l`archet	!	!
!LO:TUP:a:problem:klamra łukowa	!	!
12gg'\L	.	.
12gg'\	.	.
12gg'\J	.	.
4gg'\	.	.
4gg'\	.	.
=4	=4	=4
4gg'\	.	.
4gg'\	.	.
4gg'\	.	.
=5	=5	=5
(8.aa-^^\L	.	.
16gg\Jk)	.	.
4ff'\	.	.
4gg'\	.	.
!LO:LB:g=original	!	!
=6	=6	=6
4ee-'\	.	.
4ff'\	.	.
4b-'\	.	.
=7	=7	=7
(8.ee-^^\L	.	.
16dd\Jk)	.	.
4cc'\	.	.
4dd'\	.	.
=8	=8	=8
4b-'\	.	.
4cc'\	.	.
4g'/	.	.
=9	=9	=9
(8.a-^/L	.	.
16g/Jk	.	.
8f/)	.	.
8r	.	.
4b-^^\	.	.
=10	=10	=10
(8.a-^/L	.	.
16g/Jk	.	.
8f/)	.	.
8r	.	.
4cc^^\	.	.
=11	=11	=11
(8.a-^/L	.	.
16g/Jk	.	.
8f/)	.	.
8r	.	.
4dd^^\	.	.
!LO:LB:g=original	!	!
=12	=12	=12
(8.cc^\L	.	.
16b-\Jk	.	.
8a-/)	.	.
8r	.	.
4ee-^^\	.	.
=13	=13	=13
!LO:TX:a:i:t=più mosso	!	!
(8.dd^\L	.	p
16cc\Jk	.	.
4.b-^^\)	.	.
(8ff\	.	.
=14	=14	=14
8.dd\L	.	.
16cc\Jk	.	.
4.b-^^\)	.	.
(8ff\	.	.
=15	=15	=15
8dd\L	.	.
8cc\	.	.
8b-\)	.	.
(8ff\	.	.
8dd\	.	.
8cc\J	.	.
=16	=16	=16
8b-\L)	.	.
(8ff\	.	.
8dd\	.	.
8cc\	.	.
8b-\)	.	.
(8gg\J	.	.
!LO:LB:g=original	!	!
=17	=17	=17
(8.ff\L)	.	<
16ee-\Jk	.	.
4.dd\)	.	.
(8bb-\	.	.
=18	=18	=18
8.ff\L	.	.
16ee-\Jk	.	.
4.dd^^\)	.	.
(8bb-\	.	.
=19	=19	=19
8ff\L	.	.
8ee-\	.	.
8dd\)	.	.
(8bb-\	.	.
8ff\	.	.
8ee-\J	.	.
=20	=20	=20
8dd\L)	.	.
!LO:TX:b:i:t=cresc._:dur=21e2s2q:ext=ud:problem:text with extention lines	!	!
(8bb-\	.	<
8ff\	.	.
8ee-\	.	.
8dd\)	.	.
(8ccc\J	3	.
=21	=21	=21
8.bb-\L	2	.
16aa-\Jk	1	.
4.gg^^\)	3	.
(8ccc\	.	.
!LO:LB:g=original	!	!
=22	=22	=22
8.bb-\L	.	.
16aa-\Jk	.	.
4.ff\)	.	.
(8ccc\	.	.
=23	=23	=23
8bb-\L	.	.
8aa-\	.	.
8ff\)	.	.
(8ccc\	.	.
8bb-\	.	.
8aa-\J	.	.
=24	=24	=24
8ff\L)	.	.
(8ccc\	.	.
8bb-\	.	.
8aa-\	.	.
8ff\)	.	.
(8ccc\J	.	[
=25	=25	=25
8bb-\L	.	ff
8ccc\	.	.
8bb-\	.	.
8ccc\	.	.
8bb-\	.	.
8ccc\J)	.	.
=26	=26	=26
(8bb-\L	.	.
8ccc\	.	.
8bb-\	.	.
8ccc\	.	.
8bb-\	.	.
8ccc\J)	.	.
!LO:LB:g=original	!	!
=27	=27	=27
(8bb-\L	.	.
8ccc\	.	.
8bb-\	.	.
8ccc\	.	.
8bb-\	.	.
8ccc\J)	.	.
=28	=28	=28
(8bb-\L	.	.
8ccc\	.	.
8bb-\	.	.
8ccc\	.	.
8bb-\	.	.
8ccc\J)	.	.
=29	=29	=29
!LO:TX:b:i:t=marcato	!	!
8bb-\	.	.
16r	.	.
(16d/	.	.
2f^^/)	.	.
=30	=30	=30
(8.d/L	.	.
16f/Jk	.	.
2b-^^\)	.	.
=31	=31	=31
(8.f/L	.	.
16b-/Jk	.	.
4dd\)	.	.
(8.b-\L	.	.
16dd\Jk	.	.
=32	=32	=32
8ff\)	.	.
8r	.	.
2bb-;\	.	.
!LO:LB:g=original	!	!
=33||	=33||	=33||
!LO:TX:a:B:t=Tempo I.	!	!
8.b-u\L	.	ff
16b-\Jk	.	.
4b-\	.	.
4b-\	.	sf
=34	=34	=34
8.b-\L	.	.
16b-\Jk	.	.
4b-\	.	.
4b-\	.	sf
=35	=35	=35
8.b-/L	.	.
16an/Jk	.	.
8b-\	.	.
8r	.	.
4ee-\	.	.
=36	=36	=36
8ff\	.	.
8r	.	.
8dd\	.	.
8r	.	.
8bb-^^\	.	.
8r	.	.
=37	=37	=37
8gg'\L	.	.
8gg'\J	.	.
8gg'\	.	.
8r	.	.
8ff\	.	.
8r	.	.
!LO:LB:g=original	!	!
=38	=38	=38
8ee-\	.	.
8r	.	.
8dd\	.	.
8r	.	.
8cc\	.	.
8r	.	.
=39	=39	=39
(8b-^\L	.	.
8cc\J	.	.
8dd\)	.	.
8r	.	.
8dd\	.	.
8r	.	.
=40	=40	=40
(4dd\	.	>
8cc\)	.	.
8r	.	]
8b-\	.	.
8r	.	.
=41	=41	=41
8.b-\L	.	.
16b-\Jk	.	.
4b-\	.	.
4b-\	.	sf
=42	=42	=42
8.b-\L	.	.
16b-\Jk	.	.
4b-\	.	.
4b-\	.	sf
!LO:LB:g=original	!	!
=43	=43	=43
8.b-/L	.	.
16an/Jk	.	.
8b-\	.	.
8r	.	.
4ee-\	.	.
=44	=44	=44
8ff\	.	.
8r	.	.
8dd\	.	.
8r	.	.
8bb-^^\	.	.
8r	.	.
=45	=45	=45
8gg'\L	.	.
8gg'\J	.	.
4gg'\	.	.
4ff'\	.	.
=46	=46	=46
4ee-'\	.	.
4cc'\	.	.
4ff'\	.	.
=47	=47	=47
(>8b-^\L	.	.
8cc\J	.	.
4dd\)	.	.
(8ee-\L	.	.
8ff\J	.	.
=48	=48	=48
4gg\)	.	.
4ee-'\	.	.
4bb-^^\	.	.
!LO:LB:g=original	!	!
=49	=49	=49
8gg'\L	.	.
8gg'\J	.	.
4gg'\	.	.
4ff'\	.	.
=50	=50	=50
4ee-'\	.	.
4cc'\	.	.
4ff'\	.	.
=51	=51	=51
(8.b-\L	.	.
16ff\Jk)	.	.
(4aa-T\	.	.
8gg\L	.	.
8ff\J	.	.
=52	=52	=52
8ee-\)	.	.
8r	.	.
4ee-\	.	.
4r	.	.
=53||	=53||	=53||
*k[anb-e-]	*	*
(8ddu\L	1	p
8ee-\	.	.
8qgg/	.	.
8ff\	.	.
8een\	.	.
8ff\	.	.
8gg\J)	.	.
=54	=54	=54
(8.ee-X\L	.	.
16dd\Jk	.	.
4cc^\)	.	.
4ff^\	1	.
!LO:PB:g=original	!	!
=55	=55	=55
(8dd\L	3	.
8cc\	.	.
(8qcc/	.	.
8b-\)	.	.
8a\	.	.
8b-\	.	.
8dd\J)	.	.
=56	=56	=56
(8cc\L	.	.
8a\J	.	.
8f/)	.	.
8r	.	.
4f^>/	.	.
=57	=57	=57
(8.g\L	.	<
16a\K	.	.
8b-\	.	.
8cc\	.	.
8dd\	.	.
8ee-\J)	.	[[
=58	=58	=58
(8.ff\L	.	.
16dd\Jk	.	.
4.bb-\)	.	.
(8gg\	.	.
=59	=59	=59
8ff\L	.	.
8ee-\J	.	.
4cc\)	.	.
(16dd^\LL	.	.
16cc\JJ)	.	.
8r	.	.
!LO:LB:g=original	!	!
=60	=60	=60
!LO:TUP:b:problem:klamra łukowa	!	!
12b-/L	.	.
12a/	.	.
12g/J	.	.
4f/	.	.
4f^/	.	.
=61	=61	=61
(8dd\L	1	.
8ee-\	.	.
(8qgg/	.	.
8ff\)	.	.
8een\	.	.
8ff\	.	.
8gg\J)	.	.
=62	=62	=62
(8.ee-X\L	.	.
16dd\Jk	.	.
8cc\)	.	.
8r	.	.
4dd^\	.	.
=63	=63	=63
(8.b-/L	.	.
16a/Jk	.	.
8g/)	.	.
8r	.	.
4cc^\	.	.
=64	=64	=64
4a/	.	.
4g/	.	.
4a/	.	.
!LO:LB:g=original	!	!
=65	=65	=65
(8.b-\L	.	<
16cc\K	.	.
8dd\	1	.
8ee-\	.	.
8ff\	.	.
8ff#X\J)	.	[[
=66	=66	=66
(8.gg\L	.	f
16bb-\Jk	.	.
4.eee-\)	4	.
8ddd\	4	.
=67	=67	=67
(8.ccc\L	.	.
16bbn\K	.	.
8ccc\	.	.
8bb-X\	.	.
8aa\	.	.
8gg\J)	.	.
=68	=68	=68
!LO:TUP:a:problem:klamra łukowa	!	!
12ff#X\L	.	.
12aa\	.	.
12ddd\J	.	.
4dd\	.	f
4dd\	.	.
=69	=69	=69
8dd\L	.	.
8dd\J	.	.
4dd\	.	.
4dd\	.	.
!LO:LB:g=original	!	!
=70||	=70||	=70||
*k[bnenf#]	*	*
4.du/	.	fp
(8f#^/L	.	.
8a/	.	.
8dd/J)	.	.
=71	=71	=71
(8cc#X\L	.	.
8ee\J	4	.
4dd\)	.	.
(8cc#\L	.	.
8ee\J)	4	.
=72	=72	=72
(8dd\L	.	.
8ccn\J	.	.
4a/)	.	.
(8b/L	.	.
8a/J)	.	.
=73	=73	=73
!LO:TUP:b:problem:klamra łukowa	!	!
12g/L	.	.
12f#/	.	.
12e/J	.	.
4d/	.	.
4d/	.	.
=74	=74	=74
4.d/	.	.
(8f#/L	.	.
8a/	.	.
8dd/J)	.	.
!LO:LB:g=original	!	!
=75	=75	=75
(8cc#X\L	.	.
8ee\J	4	.
4dd\)	.	.
(8cc#\L	.	.
8ee\J)	4	.
=76	=76	=76
(8dd\L	.	.
8cc#X\J	.	.
4a/)	.	.
(8b/L	.	.
8d/J)	.	.
=77	=77	=77
8g\L	.	.
8gg\J	.	.
(4gg^\	.	.
8ff#\L	.	.
8ee\J)	.	.
=78	=78	=78
4.dd^^\	1	f
(8ff#\L	.	.
8aa\	.	.
8ddd\J)	.	.
=79	=79	=79
(8ccc#X\L	.	.
8eee\J)	0	.
4ddd\	4	.
(8ccc#\L	.	.
8eee\J)	0	.
!LO:LB:g=original	!	!
=80	=80	=80
(8ddd\L	.	.
8cccn\J	.	.
4aa\)	.	.
(8bb\L	.	.
8aa\J)	.	.
=81	=81	=81
!LO:TUP:a:problem:klamra łukowa	!	!
12gg\L	.	.
12ff#\	.	.
12ee\J	.	.
4dd\	.	.
4dd\	.	.
=82	=82	=82
4.dd^^\	1	.
(8ff#\L	0	.
8aa\	.	.
8ddd\J)	.	.
=83	=83	=83
(8bb\L	.	.
8ddd\J	.	.
4.gg\)	.	.
(16ff#\LL	.	.
16ee\JJ)	.	.
=84	=84	=84
(8dd\L	.	.
8a\J)	0	.
(4ccT\	.	.
8b/L	.	.
8a/J)	.	.
!LO:LB:g=original	!	!
=85	=85	=85
!LO:TX:b:i:t=tutta la forza	!	!
8g/	.	.
16r	.	.
16ggv\	.	.
4gg'\	.	.
4gg'\	.	.
=86	=86	=86
4gg'\	.	.
4gg'\	.	.
4gg'\	.	.
=87	=87	=87
!LO:TX:b:i:t=jetez l`archet	!	!
!LO:TUP:a:problem:klamra łukowa	!	!
12gg'\L	.	.
12gg'\	.	.
12gg'\J	.	.
4gg\	.	.
4gg\	.	.
=88	=88	=88
8.gg\L	.	.
16gg\Jk	.	.
4gg\	.	.
4gg\	.	.
=89||	=89||	=89||
*k[fnb-e-a-]	*	*
!LO:TX:t=P:problem: kasownik na dźwięku ff	!	!
8.b-\L	.	pp
16b-\Jk	.	.
4b-\	.	.
4b-\	.	.
=90	=90	=90
8.b-\L	.	.
16b-\Jk	.	.
4b-\	.	.
4b-\	.	.
!LO:LB:g=original	!	!
=91	=91	=91
(8qcc/	.	.
8.b-/L)	.	.
16an/Jk	.	.
8b-\	.	.
8r	.	.
4ee-\	.	.
=92	=92	=92
4ff\	.	.
4dd\	.	.
4bb-^^\	.	.
=93	=93	=93
8gg\L	.	.
8gg\J	.	.
4gg\	.	.
4ff\	.	.
=94	=94	=94
4ee-\	.	.
4dd\	.	.
4cc\	.	.
=95	=95	=95
(8b-^\L	.	.
8cc\J	.	.
4dd\)	.	.
4dd\	.	.
=96	=96	=96
(4dd\	.	.
4cc\)	.	.
4b-\	.	.
!LO:LB:g=original	!	!
=97	=97	=97
!LO:TX:b:i:t=jetez l`archet	!	!
!LO:TUP:a:problem:klamra łukowa	!	!
12b-'\L	.	ff
12b-'\	.	.
12b-'\J	.	.
4b-\	.	.
4b-\	.	.
=98	=98	=98
!LO:TUP:a:problem:klamra łukowa	!	!
12b-'\L	.	.
12b-'\	.	.
12b-'\J	.	.
4b-\	.	.
4b-\	.	.
=99	=99	=99
(8qcc/	.	.
8.b-/L)	.	.
16an/Jk	.	.
8b-\	.	.
8r	.	.
4ee-\	.	.
=100	=100	=100
8ff\	.	.
8r	.	.
8dd\	.	.
8r	.	.
8bb-^^\	.	.
8r	.	.
=101	=101	=101
8gg\L	.	.
8gg\J	.	.
4gg\	.	.
4ff\	.	.
=102	=102	=102
4ee-\	.	.
4cc\	.	.
4ff\	.	.
!LO:LB:g=original	!	!
=103	=103	=103
(8b-\L	.	.
8cc\J	.	.
4dd\)	.	.
(8ee-\L	.	.
8ff\J)	.	.
=104	=104	=104
4gg\	.	.
4ee-\	.	.
4bb-\	.	.
=105	=105	=105
8gg\L	.	.
8gg\J	.	.
4gg\	.	.
4ff\	.	.
=106	=106	=106
4ee-\	.	.
4cc\	.	.
4ff\	.	.
=107	=107	=107
(8.b-\L	.	.
16ff\Jk)	.	.
(4aa-T\	.	.
8gg\L	.	.
8ff\J	.	.
=108	=108	=108
8ee-\)	.	.
8r	.	.
4ee-^^\	.	.
4r	.	.
!LO:LB:g=original	!	!
=109||	=109||	=109||
4.e-/	.	fp
(8g\L	.	<
8b-\	.	.
8dd-X\J)	.	[[
=110	=110	=110
(8ff\L	.	>
8ee-\J)	.	.
(4dd-XT\	.	.
8cc\L	.	.
8b-\J)	.	]]
=111	=111	=111
(16a-\LL	.	.
16cc\JJ)	.	.
8r	.	.
(4b-^T\	.	.
8a-/L	.	.
8f/J)	.	.
=112	=112	=112
(16e-/LL	.	.
16a-/JJ)	.	.
8r	.	.
(4fT/	.	.
8e-/L	.	.
8c/J)	.	.
=113	=113	=113
4A-/	.	.
4r	.	.
4r	.	.
=114	=114	=114
2.r	.	.
=115	=115	=115
2.r	.	.
=116	=116	=116
2.r	.	.
!LO:PB:g=original	!	!
=117!|:	=117!|:	=117!|:
*k[b-e-a-d-]	*	*
8qffu/	3	pp
(8.ee-\L	.	.
16ddn\Jk	.	.
4ee-\)	.	.
4aa-\	.	.
=118	=118	=118
(8.ccc\L	.	.
16bb-\Jk)	.	.
(4.aa-^\	.	.
8gg\)	.	.
=119	=119	=119
(8.ff\L	1	.
16aa-\Jk)	.	.
8gg\	.	.
8r	.	.
4ff\	.	.
=120	=120	=120
8qff/	3	.
(8.ee-\L	.	.
16ddn\Jk)	.	.
(4ff\	.	.
8ee-\)	.	.
8r	.	.
=121	=121	=121
(8.ee-\L	2	.
16gg\Jk)	.	.
4bb-\	.	.
4ddd-\	.	.
=122	=122	=122
8qddd-/	.	.
(8.ccc\L	.	.
16bbn\Jk)	.	.
4ccc\	.	.
4eee-\	4	.
=123	=123	=123
(8qddn/	.	.
(8bb-\L)	.	.
8aan\J)	.	.
4aa-X\	.	.
(8ff\L	.	.
8ddn\J)	.	.
=124	=124	=124
*>A1	*>A1	*>A1
(8qff/	3	.
(8.ee-\L)	.	.
16ddn\Jk	.	.
8ee-\)	.	.
8r	.	.
4ee-\	.	sf
!LO:LB:g=original	!	!
=125:|!	=125:|!	=125:|!
*>A2	*>A2	*>A2
8qff/	3	.
(8.ee-\L	.	.
16ddn\Jk	.	.
8ee-\)	.	.
8r	.	.
4ee-\	.	sf
=126||	=126||	=126||
*>B	*>B	*>B
(8ee-\L	.	<
8een\J	.	.
4.ff\)	.	[ >
8cc\	2	]]
=127	=127	=127
(8.ee-X\L	4	.
16dd-\Jk	.	.
4cc\)	.	.
4ddn\	.	.
=128	=128	=128
(8dd-\L	.	<
8ddn\J	.	.
4.ee-\)	.	[ >
8b-\	.	]]
=129	=129	=129
(8.dd-X\L	.	.
16cc\Jk	.	.
4bn\)	.	.
4cc\	.	.
=130	=130	=130
(8.cc\L	.	mf
16ee-\Jk	.	.
4.aa-^\)	.	.
8ee-\	.	.
=131	=131	=131
(8.cc\L	.	.
16ee-\Jk	.	.
4.aa-^\)	.	.
8ee-\	.	.
!LO:LB:g=original	!	!
=132	=132	=132
(8ddn\L	1	<
8ee-\J)	.	.
(8qgg/	.	[ >
(4.ff\)	.	.
8ee-\)	.	]]
=133	=133	=133
(8ddn\L	.	.
8ee-\	.	.
8ff\	.	.
8ee-\	.	.
8a-\	.	.
8b-\J)	.	.
=134	=134	=134
(8.cc\L	2	.
16ee-\Jk	.	<
4.aa-^\)	.	.
8gg\	.	.
=135	=135	=135
(8.bb-\L	2	.
16aa-\Jk)	.	.
4.ccc^\	.	.
8bb-\	.	.
=136	=136	=136
(8.aa-^^\L	3	f
16gg\K	.	.
8.ff\	.	.
16ee-\K	.	.
8.ddn\	.	.
16cc\Jk)	.	.
=137	=137	=137
(8.b-\L	.	.
16ddn\K	1	.
8.ff\	.	.
16aa-\K	.	.
8.ccc\	.	.
16bb-\Jk)	.	.
!LO:LB:g=original	!	!
=138	=138	=138
(8.aa-^^\L	3	.
16gg\K	.	.
8.ff\	.	.
16ee-\K	.	.
8.ddn\	.	.
16cc\Jk)	.	.
=139	=139	=139
(8.b-\L	.	.
16ddn\K	1	.
8.ff\	.	.
16aa-\K	.	.
8.ccc\	.	.
16bbn\Jk)	.	.
=140	=140	=140
(8.dddn^^\L	4	.
16ccc\K	.	.
8.bb-\	.	.
16aa-\K	.	.
8.gg\	.	.
16ff#X\Jk)	.	.
=141	=141	=141
!	!	!LO:HP:b:t=dimin.
(8.gg^^\L	2	>
16ffn\K	.	.
8.ee-\	.	.
16ddn\K	.	.
8.cc\	.	.
16bn\Jk)	.	.
=142	=142	=142
(8.cc^^/L	.	.
16b-X/K	.	.
8.a-/	.	.
16g/K	.	.
8.f/	.	.
16en/Jk)	.	.
!LO:LB:g=original	!	!
=143	=143	=143
(8.f^^/L	.	.
16e-X/K	.	.
8.dn/	.	.
16c/K	.	.
8.B-/	.	.
16An/Jk)	.	.
=144	=144	=144
8B-/	.	.
8r	.	.
4r	.	.
4r	.	.
=145	=145	=145
8bb-\	.	f
8r	.	.
4r	.	.
4r	.	.
=146||	=146||	=146||
*k[b-e-a-]	*	*
!LO:TX:a:B:t=Tempo I.	!	!
8.b-u\L	.	ff
16b-\Jk	.	.
4b-\	.	.
4b-\	.	sf
=147	=147	=147
8.b-\L	.	.
16b-\Jk	.	.
4b-\	.	.
4b-\	.	sf
=148	=148	=148
8.b-/L	.	.
16an/Jk	.	.
8b-\	.	.
8r	.	.
4ee-\	.	.
!LO:LB:g=original	!	!
=149	=149	=149
8ff\	.	.
8r	.	.
8dd\	.	.
8r	.	.
8bb-^^\	.	.
8r	.	.
=150	=150	=150
8gg'\L	.	.
8gg'\J	.	.
8gg'\	.	.
8r	.	.
8ff\	.	.
8r	.	.
=151	=151	=151
8ee-\	.	.
8r	.	.
8dd\	.	.
8r	.	.
8cc\	.	.
8r	.	.
=152	=152	=152
(8b-^\L	.	.
8cc\J	.	.
8dd\)	.	.
8r	.	.
8dd\	.	.
8r	.	.
=153	=153	=153
(4dd\	.	.
8cc\)	.	.
8r	.	.
8b-\	.	.
8r	.	.
=154	=154	=154
8.b-\L	.	.
16b-\Jk	.	.
4b-\	.	.
4b-\	.	sf
!LO:LB:g=original	!	!
=155	=155	=155
8.b-\L	.	.
16b-\Jk	.	.
4b-\	.	.
4b-\	.	sf
=156	=156	=156
8.b-/L	.	.
16an/Jk	.	.
8b-\	.	.
8r	.	.
4ee-\	.	.
=157	=157	=157
8ff\	.	.
8r	.	.
8dd\	.	.
8r	.	.
8bb-^^\	.	.
8r	.	.
=158	=158	=158
8gg'\L	.	.
8gg'\J	.	.
4gg'\	.	.
4ff'\	.	.
=159	=159	=159
4ee-'\	.	.
4cc'\	.	.
4ff'\	.	.
=160	=160	=160
(8b-\L	.	.
8cc\J	.	.
4dd\)	.	.
(8ee-\L	.	.
8ff\J	.	.
=161	=161	=161
4gg\)	.	.
4ee-'\	.	.
4bb-^^\	.	.
!LO:LB:g=original	!	!
=162	=162	=162
8gg'\L	.	.
8gg'\J	.	.
4gg'\	.	.
4ff'\	.	.
=163	=163	=163
4ee-'\	.	.
4cc'\	.	.
4ff'\	.	.
=164	=164	=164
(8.b-\L	.	.
16cc\K	.	.
8dd\	1	.
8ee-\	.	.
8ff\	.	.
8gg\J)	.	.
=165	=165	=165
(8aa-\L	.	.
8gg\	.	.
8aa-\	.	.
8bb-\	.	.
8ccc\	.	.
8ddd\J)	.	.
=166	=166	=166
8eee-\L	4	ff
16r	.	.
16gg\Jk	.	.
4bb-^^\	.	.
(8aan\L	1	.
8ccc\J)	.	.
=167	=167	=167
(8bb-\L	.	.
8gg\J	.	.
4eee-^^\)	4	.
(8ddd\L	4	.
8ccc\J)	.	.
!LO:LB:g=original	!	!
=168	=168	=168
(8bb-\L	.	.
8ff\J	.	.
4aa-^^\)	.	.
(8gg\L	.	.
8bb-\J)	.	.
=169	=169	=169
(8aa-\L	.	.
8ff\J	.	.
4bb-^^\)	.	.
(8aa-\L	.	.
8ff\J)	.	.
=170	=170	=170
(8.ee-\L	.	.
16gg\Jk	.	.
4bb-^^\)	.	.
(8aan\L	.	.
8ccc\J)	.	.
=171	=171	=171
(8bb-\L	.	.
8gg\J)	.	.
4eee-^^\	4	.
(8ddd\L	4	.
8ccc\J)	.	.
=172	=172	=172
(8bb-\L	.	.
8ff\J)	.	.
4aa-^^T\	.	.
(8gg\L	.	.
8bb-\J)	.	.
=173	=173	=173
(8.aa-\L	.	<
16gg\K	.	.
8aa-\)	.	.
(8b-\	.	.
8cc\	.	.
8dd\J)	.	[[
=174	=174	=174
(8.ee-\L	.	.
16ff\Jk	.	.
4.gg^\)	.	.
8bn\	.	.
!LO:LB:g=original	!	!
=175	=175	=175
(8.cc\L	.	.
16dd\Jk	.	.
4.ee-^\)	.	.
8gg\	.	.
=176	=176	=176
(8.aa-\L	1	.
16bb-\Jk	.	.
4.ccc^\)	.	.
8gg\	.	.
=177	=177	=177
(8.aa-\L	.	.
16bb-\Jk	.	.
4.ccc^\)	.	.
(8een\	0	.
=178	=178	=178
8ff\L)	.	.
16r	.	.
(16a-\K	.	.
8cc\	.	.
8b-\	.	.
8a-\	.	.
8cc\J	.	.
=179	=179	=179
8ff^^\L)	.	.
16r	.	.
(16ee-\K	.	.
8dd\	.	.
8cc\	.	.
8bn\	.	.
8cc\J	.	.
=180	=180	=180
8b-X^^\L)	.	.
16r	.	.
(16aa-\K	.	.
8gg\	.	.
8ff\	.	.
8een\	.	.
8ff\J	.	.
!LO:LB:g=original	!	!
=181	=181	=181
8aa-^^\L)	.	>
16r	.	.
(16gg\K	.	.
8ff\	.	.
8ee-\	.	.
8dd\	.	.
8cc\J)	.	]]
=182	=182	=182
!LO:TX:b:i:t=dolce	!	!
4.b-\	.	p
(8dd\L	.	.
8ff\	.	.
8bb-\J)	.	.
=183	=183	=183
(8aan\L	1	.
8ccc\J	.	.
4bb-\)	.	.
(8aa\L	.	.
8ccc\J)	.	.
=184	=184	=184
(8bb-^\L	.	.
8aa-X\J	.	.
4ff\)	.	.
(8gg\L	4	.
8ff\J)	.	.
=185	=185	=185
(2ee-T\	.	.
8dd\L	.	.
8cc\J)	.	.
=186	=186	=186
4.b-\	.	<
(8dd\L	1	.
8ff\	.	.
8aa-\J)	.	.
=187	=187	=187
(8gg\L	.	.
8bb-\J	.	.
4eee-\)	4	.
(8ddd\L	4	.
8ccc\J)	.	.
!LO:LB:g=original	!	!
=188	=188	=188
(8bb-\L	.	.
8ff\J)	.	.
(4aa-^\	.	.
8gg\L	.	.
8ff\J)	.	.
=189	=189	=189
(8.ee-\L	.	.
16ff\Jk	.	.
4.gg^^\)	.	.
8b-\	.	.
=190	=190	=190
(8.ee-\L	.	.
16ff\Jk	.	.
4.gg^^\)	.	.
8b-\	.	.
=191	=191	=191
(8ee-\L	.	.
8ff\	.	.
8gg\	.	.
8b-\	.	.
8ee-\	.	.
8ff\J)	.	.
=192	=192	=192
(8gg\L	.	.
8ee-\	.	.
8b-\	.	.
8g\	.	.
8b-\	.	.
8g\J)	.	.
=193	=193	=193
8e-/L	.	.
8e-/J	.	.
8a-/L	.	.
8a-/J	.	.
8g/L	.	.
8g/J	.	.
=194	=194	=194
8cc\L	.	.
8cc\J	.	.
8b-\L	.	.
8b-\J	.	.
8ee-\L	.	.
8ee-\J	.	.
!LO:LB:g=original	!	!
=195	=195	=195
8dd\L	.	.
8dd\J	.	.
8ff\L	.	.
8ff\J	.	.
8ee-\L	.	.
8ee-\J	.	.
=196	=196	=196
8aa-\L	.	.
8aa-\J	.	.
8gg\L	.	.
8gg\J	.	.
8bb-\L	.	.
8bb-\J	.	.
=197	=197	=197
4ee-\	.	.
4r	.	.
8ee-\L	.	.
8ee-\J	.	.
=198	=198	=198
2ee-^^\	.	.
8ee-\L	.	.
8ee-\J	.	.
=199	=199	=199
2ee-^^\	.	.
8ee-\L	.	.
8ee-\J	.	.
=200	=200	=200
4ee-\	.	.
4ee-\	.	.
4ee-\	.	.
=201	=201	=201
2ee-^^\	.	.
4r	.	.
=202	=202	=202
2gg^^\	.	.
4r	.	.
=203	=203	=203
2ee-^^\	.	.
4r	.	.
=204	=204	=204
2bb-^^\	.	.
4r	.	.
=205	=205	=205
2.e-;/	.	.
==	==	==
*-	*-	*-
!!!RDF**kern: > = above
!!!RDF**kern: < = below
!!!ENC: Filip Voros
!!!END: 2022-07-30
!!!ENC: Jan Barakat
!!!END: 2022-08-27
!!!YEC: Copyright 2022 Narodowy Instytut Fryderyka Chopina (https://polishscores.org)
!!!YEM: License CC-BY-4.0 (https://creativecommons.org/licenses/by/4.0)
